X:312
T: Dutches of Buccleugh's Favorite
T: Duchess of Buccleugh's Favorite
N: O'Farrell's Pocket Companion v.4 (Sky ed. p.138)
N: "Scotch"
M: 4/4
R: march  % ? strathspey
L: 1/8
Q: 200
K: Edor
F/G/| A>B B/A/G/F/ AFFd| A>Bdf A2 AB| A>B B/A/G/F/ dAf>e|
d>B  B/A/G/F/ FEE>F| A>B B/A/G/F/ AFFd| A>Bdf A2 Af/g/|
a>fg>e f>de>c| dBAF FEE :|
b| affb affb| abd'f a2ab| affb af f/a/b/c'/| d'baf feeb|
affb affg| ab/c'/ d'f a2 ab/c'/| d'/c'/b/a/ b/a/g/f/ g/f/e/d/ f/e/d/c/|
e/d/c/B/ B/A/G/F/ FEE :|
